X: 1020
T: Almost Blue
R: jig
M: 6/8
K: Dmajor
=F^FA ^ABd|=f^fa fed|fed ^ABd|G6|=c^ce A2A|
=c^ce A2A|f2a ^f=fe|d2- d- d2 A|=F^FA ^ABd|
=f^fa fed|fed ^ABd|G6|^EFA =cBA|Ace gfe|B=cB AB^c|d6:|
a^ga =c'2a|a^ga =f2 e|d2 d =f2 ^f|g6|e^de a3|
c=c^c c=c^c|Ace gfe|^f6|a^ga =c'2a|a^ga =f2 e|
d2 d =f2 ^f|g6|=c^ce ^efa|=c^ce ^efa|B=cB AB^c|d6:|

